X: 80
M:4/4
L:1/8
K:G
g2 gf gfde|f2 fe fdcA|fdde fgag|(3efg fa gfga|
bgag fddg|fdcA BGAF|DGGA Bcde|fdcA BG G2||

